client/public/img/game/shared/weapons/death_ray_world.svg

<?xml version="1.0" encoding="UTF-8" standalone="no"?>
<svg
   width="163"
   height="26"
   viewBox="0 0 163 26"
   fill="none"
   version="1.1"
   id="svg45"
   xmlns="http://www.w3.org/2000/svg"
   xmlns:svg="http://www.w3.org/2000/svg">
  <path
     d="M98.0056 3.66016L49.0856 3.65039C48.3656 3.65039 47.7856 4.30039 47.7856 5.10039V18.3504C47.7856 19.0504 48.4656 19.8004 49.0856 19.8004L98.0056 19.8002V3.66016Z"
     fill="url(#paint0_linear_3738_1230)"
     id="path1" />
  <path
     d="M98.0059 3.66016L49.0856 3.65039C48.3656 3.65039 47.7856 4.30039 47.7856 5.10039V18.3504C47.7856 19.0504 48.4656 19.8004 49.0856 19.8004L98.0059 19.8002V3.66016Z"
     fill="url(#paint1_linear_3738_1230)"
     id="path2" />
  <path
     d="M47.7856 17.8886V5.56152H7.83393C7.38393 5.56152 7.02393 6.08882 7.02393 6.72849V16.7217C7.02393 17.37 7.38393 17.8886 7.83393 17.8886H47.7856Z"
     fill="#4084BF"
     id="path3" />
  <path
     d="M2.81586 5.56152H7.02V17.8887L2.81586 17.8886C2.36586 17.8886 2.00586 17.37 2.00586 16.7217V6.72849C2.00586 6.08882 2.36586 5.56152 2.81586 5.56152Z"
     fill="#266397"
     stroke="#091825"
     stroke-width="3"
     id="path4" />
  <path
     d="M47.7865 5.56152H7.83393C7.38393 5.56152 7.02393 6.08882 7.02393 6.72849V16.7217C7.02393 17.37 7.38393 17.8886 7.83393 17.8886H47.7865V5.56152Z"
     stroke="#0B1822"
     stroke-width="3"
     id="path5" />
  <path
     d="M47.7859 5.56152H43.0659V17.8878H47.7859V5.56152Z"
     fill="#296BA3"
     stroke="#071827"
     stroke-width="3"
     id="path6" />
  <path
     d="M113.276 2.17383H131.746C132.076 2.17383 132.346 2.73092 132.346 3.42728V20.0239C132.346 20.7203 132.076 21.2774 131.746 21.2774H113.276C112.946 21.2774 112.676 20.7203 112.676 20.0239V3.42728C112.676 2.73092 112.946 2.17383 113.276 2.17383Z"
     fill="#296BA3"
     stroke="#071827"
     stroke-width="3"
     id="path7" />
  <path
     d="M95.2734 19.8008H96.7866C96.5975 21.3896 96.5975 22.2219 96.7866 23.7729C96.7866 23.8863 96.7866 23.9053 96.6731 23.8296C96.5785 23.7539 96.2003 23.3757 96.0868 23.1298C95.6517 22.2975 95.2734 20.8033 95.2734 19.8008Z"
     fill="#296BA3"
     stroke="#071827"
     stroke-width="3"
     id="path8" />
  <path
     d="M94.0057 9.03027H48.0757V14.4303H94.0057V9.03027Z"
     fill="#7A491F"
     id="path9" />
  <path
     d="M53.0957 9.03027H52.0757V14.4303H53.0957V9.03027Z"
     fill="#A36229"
     id="path10" />
  <path
     d="M55.376 9.03027H54.356V14.4303H55.376V9.03027Z"
     fill="#A36229"
     id="path11" />
  <path
     d="M50.8159 9.03027H49.7959V14.4303H50.8159V9.03027Z"
     fill="#A36229"
     id="path12" />
  <path
     d="M57.6557 9.03027H56.6357V14.4303H57.6557V9.03027Z"
     fill="#A36229"
     id="path13" />
  <path
     d="M59.936 9.03027H58.916V14.4303H59.936V9.03027Z"
     fill="#A36229"
     id="path14" />
  <path
     d="M62.2158 9.03027H61.1958V14.4303H62.2158V9.03027Z"
     fill="#A36229"
     id="path15" />
  <path
     d="M64.4961 9.03027H63.4761V14.4303H64.4961V9.03027Z"
     fill="#A36229"
     id="path16" />
  <path
     d="M91.8657 9.03027H90.8457V14.4303H91.8657V9.03027Z"
     fill="#A36229"
     id="path17" />
  <path
     d="M69.0556 9.03027H68.0356V14.4303H69.0556V9.03027Z"
     fill="#A36229"
     id="path18" />
  <path
     d="M78.186 9.03027H77.166V14.4303H78.186V9.03027Z"
     fill="#A36229"
     id="path19" />
  <path
     d="M66.7759 9.03027H65.7559V14.4303H66.7759V9.03027Z"
     fill="#A36229"
     id="path20" />
  <path
     d="M71.3359 9.03027H70.3159V14.4303H71.3359V9.03027Z"
     fill="#A36229"
     id="path21" />
  <path
     d="M73.6157 9.03027H72.5957V14.4303H73.6157V9.03027Z"
     fill="#A36229"
     id="path22" />
  <path
     d="M75.9057 9.03027H74.8857V14.4303H75.9057V9.03027Z"
     fill="#A36229"
     id="path23" />
  <path
     d="M80.4658 9.03027H79.4458V14.4303H80.4658V9.03027Z"
     fill="#A36229"
     id="path24" />
  <path
     d="M82.7461 9.03027H81.7261V14.4303H82.7461V9.03027Z"
     fill="#A36229"
     id="path25" />
  <path
     d="M85.0259 9.03027H84.0059V14.4303H85.0259V9.03027Z"
     fill="#A36229"
     id="path26" />
  <path
     d="M87.3056 9.03027H86.2856V14.4303H87.3056V9.03027Z"
     fill="#A36229"
     id="path27" />
  <path
     d="M89.5859 9.03027H88.5659V14.4303H89.5859V9.03027Z"
     fill="#A36229"
     id="path28" />
  <path
     d="M94.146 9.03027H93.126V14.4303H94.146V9.03027Z"
     fill="#A36229"
     id="path29" />
  <path
     d="M98.0098 5.15527L160.555 6.22527C160.805 6.22527 161.005 6.59527 161.005 7.03527V16.4153C161.005 16.8553 160.805 17.2153 160.555 17.2253L98.0098 18.2953V5.15527Z"
     fill="url(#paint2_linear_3738_1230)"
     stroke="url(#paint3_linear_3738_1230)"
     stroke-width="3"
     id="path30" />
  <path
     d="M155.396 10.1201H150.946C150.576 10.1201 150.276 10.4201 150.276 10.7901V12.4501C150.276 12.8201 150.576 13.1201 150.946 13.1201H155.396C155.766 13.1201 156.066 12.8201 156.066 12.4501V10.7901C156.066 10.4201 155.766 10.1201 155.396 10.1201Z"
     fill="#1F6BAD"
     stroke="#071827"
     stroke-width="1.5"
     id="path31" />
  <path
     d="M93.0757 9.03027H49.0057C48.4921 9.03027 48.0757 9.44665 48.0757 9.96027V13.5003C48.0757 14.0139 48.4921 14.4303 49.0057 14.4303H93.0757C93.5893 14.4303 94.0057 14.0139 94.0057 13.5003V9.96027C94.0057 9.44665 93.5893 9.03027 93.0757 9.03027Z"
     stroke="#251609"
     stroke-width="1.5"
     id="path32" />
  <path
     d="M49.0856 3.65039L98.0056 3.66039V19.8004H49.0856C48.3656 19.8004 47.7856 19.1504 47.7856 18.3504V5.10039C47.7856 4.30039 48.3656 3.65039 49.0856 3.65039Z"
     stroke="url(#paint4_linear_3738_1230)"
     stroke-width="3"
     id="path33" />
  <path
     d="M54.0258 9.2998H48.8758C48.6358 9.2998 48.4458 9.5398 48.4458 9.8398V13.6198C48.4458 13.9198 48.6358 14.1598 48.8758 14.1598H54.0258C54.2658 14.1598 54.4558 13.9198 54.4558 13.6198V9.8398C54.4558 9.5398 54.2658 9.2998 54.0258 9.2998Z"
     fill="#296BA3"
     id="path34" />
  <path
     d="M49.6957 10.5098H49.0557V12.9398H49.6957V10.5098Z"
     fill="#1F507A"
     id="path35" />
  <path
     d="M54.0258 9.2998H48.8758C48.6358 9.2998 48.4458 9.5398 48.4458 9.8398V13.6198C48.4458 13.9198 48.6358 14.1598 48.8758 14.1598H54.0258C54.2658 14.1598 54.4558 13.9198 54.4558 13.6198V9.8398C54.4558 9.5398 54.2658 9.2998 54.0258 9.2998Z"
     stroke="#071827"
     stroke-width="3"
     id="path36" />
  <defs
     id="defs45">
    <linearGradient
       id="paint0_linear_3738_1230"
       x1="97.8556"
       y1="14.6102"
       x2="51.9356"
       y2="8.85015"
       gradientUnits="userSpaceOnUse">
      <stop
         stop-color="#E66B00"
         id="stop36" />
      <stop
         offset="1"
         stop-color="#996333"
         id="stop37" />
    </linearGradient>
    <linearGradient
       id="paint1_linear_3738_1230"
       x1="52.0657"
       y1="7.90739"
       x2="98.0259"
       y2="12.2458"
       gradientUnits="userSpaceOnUse">
      <stop
         stop-color="#1A88E6"
         stop-opacity="0.7"
         id="stop38" />
      <stop
         offset="1"
         stop-color="#008AFF"
         stop-opacity="0"
         id="stop39" />
    </linearGradient>
    <linearGradient
       id="paint2_linear_3738_1230"
       x1="102.206"
       y1="11.2253"
       x2="160.786"
       y2="10.5753"
       gradientUnits="userSpaceOnUse">
      <stop
         stop-color="#FF7500"
         id="stop40" />
      <stop
         offset="1"
         stop-color="#B85F14"
         id="stop41" />
    </linearGradient>
    <linearGradient
       id="paint3_linear_3738_1230"
       x1="101.616"
       y1="11.2253"
       x2="161.666"
       y2="11.2253"
       gradientUnits="userSpaceOnUse">
      <stop
         stop-color="#2E1500"
         id="stop42" />
      <stop
         offset="1"
         stop-color="#291605"
         id="stop43" />
    </linearGradient>
    <linearGradient
       id="paint4_linear_3738_1230"
       x1="51.8456"
       y1="8.67039"
       x2="98.3356"
       y2="14.5004"
       gradientUnits="userSpaceOnUse">
      <stop
         stop-color="#071927"
         id="stop44" />
      <stop
         offset="1"
         stop-color="#2E1500"
         id="stop45" />
    </linearGradient>
  </defs>
</svg>

<svg xmlns="http://www.w3.org/2000/svg" width="163" height="26" fill="none"><path fill="url(#a)" d="m98.006 3.66-48.92-.01c-.72 0-1.3.65-1.3 1.45v13.25c0 .7.68 1.45 1.3 1.45h48.92z"/><path fill="url(#b)" d="m98.006 3.66-48.92-.01c-.72 0-1.3.65-1.3 1.45v13.25c0 .7.68 1.45 1.3 1.45h48.92z"/><path fill="#4084BF" d="M47.786 17.889V5.562H7.834c-.45 0-.81.527-.81 1.166v9.994c0 .648.36 1.167.81 1.167z"/><path fill="#266397" stroke="#091825" stroke-width="3" d="M2.816 5.562H7.02v12.327H2.816c-.45 0-.81-.519-.81-1.167V6.728c0-.64.36-1.166.81-1.166Z"/><path stroke="#0B1822" stroke-width="3" d="M47.787 5.562H7.833c-.45 0-.81.527-.81 1.166v9.994c0 .648.36 1.167.81 1.167h39.952z"/><path fill="#296BA3" stroke="#071827" stroke-width="3" d="M47.786 5.562h-4.72v12.326h4.72zM113.276 2.174h18.47c.33 0 .6.557.6 1.253v16.597c0 .696-.27 1.253-.6 1.253h-18.47c-.33 0-.6-.557-.6-1.253V3.427c0-.696.27-1.253.6-1.253ZM95.273 19.8h1.514c-.19 1.59-.19 2.422 0 3.973 0 .113 0 .132-.114.057-.094-.076-.473-.454-.586-.7-.435-.832-.814-2.327-.814-3.33Z"/><path fill="#7A491F" d="M94.006 9.03h-45.93v5.4h45.93z"/><path fill="#A36229" d="M53.096 9.03h-1.02v5.4h1.02zM55.376 9.03h-1.02v5.4h1.02zM50.816 9.03h-1.02v5.4h1.02zM57.656 9.03h-1.02v5.4h1.02zM59.936 9.03h-1.02v5.4h1.02zM62.216 9.03h-1.02v5.4h1.02zM64.496 9.03h-1.02v5.4h1.02zM91.866 9.03h-1.02v5.4h1.02zM69.056 9.03h-1.02v5.4h1.02zM78.186 9.03h-1.02v5.4h1.02zM66.776 9.03h-1.02v5.4h1.02zM71.336 9.03h-1.02v5.4h1.02zM73.616 9.03h-1.02v5.4h1.02zM75.906 9.03h-1.02v5.4h1.02zM80.466 9.03h-1.02v5.4h1.02zM82.746 9.03h-1.02v5.4h1.02zM85.026 9.03h-1.02v5.4h1.02zM87.306 9.03h-1.02v5.4h1.02zM89.586 9.03h-1.02v5.4h1.02zM94.146 9.03h-1.02v5.4h1.02z"/><path fill="url(#c)" stroke="url(#d)" stroke-width="3" d="m98.01 5.155 62.545 1.07c.25 0 .45.37.45.81v9.38c0 .44-.2.8-.45.81l-62.545 1.07z"/><path fill="#1F6BAD" stroke="#071827" stroke-width="1.5" d="M155.396 10.12h-4.45c-.37 0-.67.3-.67.67v1.66c0 .37.3.67.67.67h4.45c.37 0 .67-.3.67-.67v-1.66c0-.37-.3-.67-.67-.67Z"/><path stroke="#251609" stroke-width="1.5" d="M93.076 9.03h-44.07a.93.93 0 0 0-.93.93v3.54c0 .514.416.93.93.93h44.07a.93.93 0 0 0 .93-.93V9.96a.93.93 0 0 0-.93-.93Z"/><path stroke="url(#e)" stroke-width="3" d="m49.086 3.65 48.92.01V19.8h-48.92c-.72 0-1.3-.65-1.3-1.45V5.1c0-.8.58-1.45 1.3-1.45Z"/><path fill="#296BA3" d="M54.026 9.3h-5.15c-.24 0-.43.24-.43.54v3.78c0 .3.19.54.43.54h5.15c.24 0 .43-.24.43-.54V9.84c0-.3-.19-.54-.43-.54"/><path fill="#1F507A" d="M49.696 10.51h-.64v2.43h.64z"/><path stroke="#071827" stroke-width="3" d="M54.026 9.3h-5.15c-.24 0-.43.24-.43.54v3.78c0 .3.19.54.43.54h5.15c.24 0 .43-.24.43-.54V9.84c0-.3-.19-.54-.43-.54Z"/><defs><linearGradient id="a" x1="97.856" x2="51.936" y1="14.61" y2="8.85" gradientUnits="userSpaceOnUse"><stop stop-color="#E66B00"/><stop offset="1" stop-color="#996333"/></linearGradient><linearGradient id="b" x1="52.066" x2="98.026" y1="7.907" y2="12.246" gradientUnits="userSpaceOnUse"><stop stop-color="#1A88E6" stop-opacity=".7"/><stop offset="1" stop-color="#008AFF" stop-opacity="0"/></linearGradient><linearGradient id="c" x1="102.206" x2="160.786" y1="11.225" y2="10.575" gradientUnits="userSpaceOnUse"><stop stop-color="#FF7500"/><stop offset="1" stop-color="#B85F14"/></linearGradient><linearGradient id="d" x1="101.616" x2="161.666" y1="11.225" y2="11.225" gradientUnits="userSpaceOnUse"><stop stop-color="#2E1500"/><stop offset="1" stop-color="#291605"/></linearGradient><linearGradient id="e" x1="51.846" x2="98.336" y1="8.67" y2="14.5" gradientUnits="userSpaceOnUse"><stop stop-color="#071927"/><stop offset="1" stop-color="#2E1500"/></linearGradient></defs></svg>
